fonts/angle-arrow-up-white.svg

<?xml version="1.0" encoding="UTF-8"?>
<svg xmlns="http://www.w3.org/2000/svg" width="513" height="300" viewBox="0 0 513 300">
  <path fill="#FFF" d="M5.24346767,268.624394 L5.24526461,268.6208 C1.82748685,265.197632 0.127582661,261.262336 0.127582661,256.814912 C0.127582661,252.372879 1.82568991,248.437583 5.24346767,245.018008 L244.333374,5.9424769 C247.751152,2.52110526 251.67926,0.814013316 256.124887,0.814013316 C260.570514,0.814013316 264.509404,2.5229022 267.923588,5.9424769 L506.995525,245.018008 C510.4151,248.435786 512.127583,252.371082 512.127583,256.814912 C512.127583,261.262336 510.420491,265.197632 506.995525,268.613613 L481.347816,294.264915 C477.930039,297.689881 473.994743,299.396973 469.547319,299.396973 C465.101692,299.396973 461.166396,297.689881 457.746821,294.266712 L256.126684,92.650169 L54.4921717,294.266712 C51.072597,297.691678 47.1373009,299.39877 42.6988618,299.39877 C38.2478442,299.39877 34.3107511,297.691678 30.8929733,294.266712 L5.24346767,268.624394 Z"/>
</svg>

<svg xmlns="http://www.w3.org/2000/svg" width="513" height="300"><path fill="#FFF" d="M5.243 268.624l.002-.003c-3.418-3.423-5.117-7.359-5.117-11.806 0-4.442 1.698-8.377 5.115-11.797L244.333 5.942c3.418-3.42 7.346-5.128 11.792-5.128s8.384 1.709 11.799 5.128l239.072 239.076c3.42 3.418 5.132 7.353 5.132 11.797 0 4.447-1.708 8.383-5.132 11.799l-25.648 25.65c-3.418 3.426-7.353 5.133-11.8 5.133-4.446 0-8.382-1.707-11.801-5.13L256.127 92.65 54.492 294.267c-3.42 3.425-7.355 5.132-11.793 5.132-4.451 0-8.388-1.707-11.806-5.132l-25.65-25.643z"/></svg>
